assets/landing_icons/custom_icons/draw.svg

<svg width="14" height="14" viewBox="0 0 14 14" fill="none" xmlns="http://www.w3.org/2000/svg">
<path fill-rule="evenodd" clip-rule="evenodd" d="M9.70955 0.792893C9.31902 0.402369 8.68586 0.402369 8.29533 0.792893L0.295335 8.79289L0.00244141 9.5V12.5C0.00244141 13.0523 0.450157 13.5 1.00244 13.5H13.9974V12.5H5.41665L12.7095 5.20711C13.1001 4.81658 13.1001 4.18342 12.7095 3.79289L9.70955 0.792893ZM2.00244 11.5V9.91421L9.00244 2.91421L10.5882 4.5L3.58823 11.5H2.00244Z" fill="#494369"/>
</svg>

<svg xmlns="http://www.w3.org/2000/svg" width="14" height="14" fill="none" viewBox="0 0 14 14"><path fill="#494369" fill-rule="evenodd" d="M9.71.793a1 1 0 0 0-1.415 0l-8 8-.293.707v3a1 1 0 0 0 1 1h12.995v-1h-8.58l7.293-7.293a1 1 0 0 0 0-1.414zM2.002 11.5V9.914l7-7L10.588 4.5l-7 7z" clip-rule="evenodd"/></svg>
